Yaru++/actions/16/gtk-index.svg

<svg height="16" width="16" xmlns="http://www.w3.org/2000/svg">
  <path d="m2.5 2a1.5 1.5 0 0 0 -1.5 1.5 1.5 1.5 0 0 0 1.5 1.5 1.5 1.5 0 0 0 1.5-1.5 1.5 1.5 0 0 0 -1.5-1.5zm3.6992188 1c-.1108001 0-.1992188.0884187-.1992188.1992188v.6015624c0 .1108001.0884187.1992188.1992188.1992188h7.6015622c.1108 0 .199219-.0884187.199219-.1992188v-.6015624c0-.1108001-.088419-.1992188-.199219-.1992188zm-3.6992188 3a1.5 1.5 0 0 0 -1.5 1.5 1.5 1.5 0 0 0 1.5 1.5 1.5 1.5 0 0 0 1.5-1.5 1.5 1.5 0 0 0 -1.5-1.5zm3.6992188 1c-.1108001 0-.1992188.0884187-.1992188.1992188v.6015624c0 .1108001.0884187.1992188.1992188.1992188h7.6015622c.1108 0 .199219-.0884187.199219-.1992188v-.6015624c0-.1108001-.088419-.1992188-.199219-.1992188zm-3.6992188 3a1.5 1.5 0 0 0 -1.5 1.5 1.5 1.5 0 0 0 1.5 1.5 1.5 1.5 0 0 0 1.5-1.5 1.5 1.5 0 0 0 -1.5-1.5zm3.6992188 1c-.1108001 0-.1992188.088419-.1992188.199219v.601562c0 .1108.0884187.199219.1992188.199219h7.6015622c.1108 0 .199219-.088419.199219-.199219v-.601562c0-.1108-.088419-.199219-.199219-.199219z" fill="#808080"/>
</svg>

<svg xmlns="http://www.w3.org/2000/svg" width="16" height="16" version="1.1">
 <path style="fill:#808080" d="M 2.5 2 A 1.5 1.5 0 0 0 1 3.5 A 1.5 1.5 0 0 0 2.5 5 A 1.5 1.5 0 0 0 4 3.5 A 1.5 1.5 0 0 0 2.5 2 z M 6.1992188 3 C 6.0884187 3 6 3.0884187 6 3.1992188 L 6 3.8007812 C 6 3.9115813 6.0884187 4 6.1992188 4 L 13.800781 4 C 13.911581 4 14 3.9115813 14 3.8007812 L 14 3.1992188 C 14 3.0884187 13.911581 3 13.800781 3 L 6.1992188 3 z M 2.5 6 A 1.5 1.5 0 0 0 1 7.5 A 1.5 1.5 0 0 0 2.5 9 A 1.5 1.5 0 0 0 4 7.5 A 1.5 1.5 0 0 0 2.5 6 z M 6.1992188 7 C 6.0884187 7 6 7.0884187 6 7.1992188 L 6 7.8007812 C 6 7.9115813 6.0884187 8 6.1992188 8 L 13.800781 8 C 13.911581 8 14 7.9115813 14 7.8007812 L 14 7.1992188 C 14 7.0884187 13.911581 7 13.800781 7 L 6.1992188 7 z M 2.5 10 A 1.5 1.5 0 0 0 1 11.5 A 1.5 1.5 0 0 0 2.5 13 A 1.5 1.5 0 0 0 4 11.5 A 1.5 1.5 0 0 0 2.5 10 z M 6.1992188 11 C 6.0884187 11 6 11.088419 6 11.199219 L 6 11.800781 C 6 11.911581 6.0884187 12 6.1992188 12 L 13.800781 12 C 13.911581 12 14 11.911581 14 11.800781 L 14 11.199219 C 14 11.088419 13.911581 11 13.800781 11 L 6.1992188 11 z"/>
</svg>
